lib/svg/settings.svg

<svg xmlns="http://www.w3.org/2000/svg" width="16" height="16" viewBox="0 0 16 16"><path d="M4 7H3V2h1v5zm-1 7h1v-3H3v3zm5 0h1V8H8v6zm5 0h1v-2h-1v2zm1-12h-1v6h1V2zM9 2H8v2h1V2zM5 8H2c-.55 0-1 .45-1 1s.45 1 1 1h3c.55 0 1-.45 1-1s-.45-1-1-1zm5-3H7c-.55 0-1 .45-1 1s.45 1 1 1h3c.55 0 1-.45 1-1s-.45-1-1-1zm5 4h-3c-.55 0-1 .45-1 1s.45 1 1 1h3c.55 0 1-.45 1-1s-.45-1-1-1z"/></svg>

<?xml version="1.0" encoding="UTF-8" standalone="no"?>
<svg width="16px" height="16px" viewBox="0 0 16 16" version="1.1" xmlns="http://www.w3.org/2000/svg" xmlns:xlink="http://www.w3.org/1999/xlink">
    <!-- Generator: Sketch 3.8.3 (29802) - http://www.bohemiancoding.com/sketch -->
    <title>settings</title>
    <desc>Created with Sketch.</desc>
    <defs></defs>
    <g id="Octicons" stroke="none" stroke-width="1" fill="none" fill-rule="evenodd">
        <g id="settings" fill="#000000">
            <path d="M4,7 L3,7 L3,2 L4,2 L4,7 L4,7 Z M3,14 L4,14 L4,11 L3,11 L3,14 L3,14 Z M8,14 L9,14 L9,8 L8,8 L8,14 L8,14 Z M13,14 L14,14 L14,12 L13,12 L13,14 L13,14 Z M14,2 L13,2 L13,8 L14,8 L14,2 L14,2 Z M9,2 L8,2 L8,4 L9,4 L9,2 L9,2 Z M5,8 L2,8 C1.45,8 1,8.45 1,9 C1,9.55 1.45,10 2,10 L5,10 C5.55,10 6,9.55 6,9 C6,8.45 5.55,8 5,8 L5,8 Z M10,5 L7,5 C6.45,5 6,5.45 6,6 C6,6.55 6.45,7 7,7 L10,7 C10.55,7 11,6.55 11,6 C11,5.45 10.55,5 10,5 L10,5 Z M15,9 L12,9 C11.45,9 11,9.45 11,10 C11,10.55 11.45,11 12,11 L15,11 C15.55,11 16,10.55 16,10 C16,9.45 15.55,9 15,9 L15,9 Z" id="Shape"></path>
        </g>
    </g>
</svg>
